svg/black/ppt.svg

<svg xmlns="http://www.w3.org/2000/svg" width="32" height="32" viewBox="0 0 32 32">
  <path d="M16,32 C7.163444,32 0,24.836556 0,16 C0,7.163444 7.163444,0 16,0 C24.836556,0 32,7.163444 32,16 C32,24.836556 24.836556,32 16,32 Z M16.0488,8.31584 C17.3645632,8.31584 18.4312,7.58251824 18.4312,6.67792 C18.4312,5.77332176 17.3645632,5.04 16.0488,5.04 C14.7330368,5.04 13.6664,5.77332176 13.6664,6.67792 C13.6664,7.58251824 14.7330368,8.31584 16.0488,8.31584 Z M14.816,26.6008 C14.816,26.79728 14.98864,26.976 15.18512,26.976 L16.8528,26.976 C17.04928,26.976 17.2,26.79744 17.2,26.6008 L17.2,19.52 L20.128,19.52 C20.32448,19.52 20.464,19.35232 20.464,19.15584 L20.464,9.44752 C20.464,9.25104 20.32528,9.104 20.128,9.104 L14.816,9.104 L14.816,26.6008 Z M13.92,19.52 L13.92,9.104 L11.90944,9.104 C11.7128,9.104 11.536,9.25104 11.536,9.44752 L11.536,19.15584 C11.536,19.35232 11.71296,19.52 11.90944,19.52 L13.92,19.52 Z"/>
</svg>

<svg xmlns="http://www.w3.org/2000/svg" width="32" height="32"><path d="M16 32C7.163 32 0 24.837 0 16S7.163 0 16 0s16 7.163 16 16-7.163 16-16 16zm.049-23.684c1.316 0 2.382-.733 2.382-1.638 0-.905-1.066-1.638-2.382-1.638s-2.383.733-2.383 1.638c0 .905 1.067 1.638 2.383 1.638zM14.816 26.6c0 .196.173.375.37.375h1.667c.196 0 .347-.179.347-.375V19.52h2.928c.196 0 .336-.168.336-.364V9.448c0-.197-.139-.344-.336-.344h-5.312v17.497zm-.896-7.081V9.104h-2.01c-.197 0-.374.147-.374.344v9.708c0 .196.177.364.373.364h2.011z"/></svg>
